svg/business/seal_line.svg

<?xml version="1.0" encoding="UTF-8"?>
<svg width="24px" height="24px" viewBox="0 0 24 24" version="1.1" xmlns="http://www.w3.org/2000/svg" xmlns:xlink="http://www.w3.org/1999/xlink">
    <title>seal_line</title>
    <g id="页面-1" stroke="none" stroke-width="1" fill="none" fill-rule="evenodd">
        <g id="Business" transform="translate(-528.000000, -192.000000)">
            <g id="seal_line" transform="translate(528.000000, 192.000000)">
                <path d="M24,0 L24,24 L0,24 L0,0 L24,0 Z M12.5934901,23.257841 L12.5819402,23.2595131 L12.5108777,23.2950439 L12.4918791,23.2987469 L12.4918791,23.2987469 L12.4767152,23.2950439 L12.4056548,23.2595131 C12.3958229,23.2563662 12.3870493,23.2590235 12.3821421,23.2649074 L12.3780323,23.275831 L12.360941,23.7031097 L12.3658947,23.7234994 L12.3769048,23.7357139 L12.4804777,23.8096931 L12.4953491,23.8136134 L12.4953491,23.8136134 L12.5071152,23.8096931 L12.6106902,23.7357139 L12.6232938,23.7196733 L12.6232938,23.7196733 L12.6266527,23.7031097 L12.609561,23.275831 C12.6075724,23.2657013 12.6010112,23.2592993 12.5934901,23.257841 L12.5934901,23.257841 Z M12.8583906,23.1452862 L12.8445485,23.1473072 L12.6598443,23.2396597 L12.6498822,23.2499052 L12.6498822,23.2499052 L12.6471943,23.2611114 L12.6650943,23.6906389 L12.6699349,23.7034178 L12.6699349,23.7034178 L12.678386,23.7104931 L12.8793402,23.8032389 C12.8914285,23.8068999 12.9022333,23.8029875 12.9078286,23.7952264 L12.9118235,23.7811639 L12.8776777,23.1665331 C12.8752882,23.1545897 12.8674102,23.1470016 12.8583906,23.1452862 L12.8583906,23.1452862 Z M12.1430473,23.1473072 C12.1332178,23.1423925 12.1221763,23.1452606 12.1156365,23.1525954 L12.1099173,23.1665331 L12.0757714,23.7811639 C12.0751323,23.7926639 12.0828099,23.8018602 12.0926481,23.8045676 L12.108256,23.8032389 L12.3092106,23.7104931 L12.3186497,23.7024347 L12.3186497,23.7024347 L12.3225043,23.6906389 L12.340401,23.2611114 L12.337245,23.2485176 L12.337245,23.2485176 L12.3277531,23.2396597 L12.1430473,23.1473072 Z" id="MingCute" fill-rule="nonzero"></path>
                <path d="M6,8 C6,4.68629 8.68629,2 12,2 C15.3137,2 18,4.68629 18,8 C18,10.2792 16.7287,12.2601 14.8613,13.2749 C14.8078,13.3039 14.7729,13.3411 14.7559,13.3685 C14.7481,13.381 14.7456,13.3886 14.7448,13.3919 L14.8597,15 L18,15 C19.6569,15 21,16.3431 21,18 L21,20 C21,21.1046 20.1046,22 19,22 L5,22 C3.89543,22 3,21.1046 3,20 L3,18 C3,16.3431 4.34315,15 6,15 L9.14031,15 L9.25518,13.3919 C9.25443,13.3886 9.25187,13.381 9.24413,13.3685 C9.2271,13.3411 9.19218,13.3039 9.13865,13.2749 C7.27125,12.2601 6,10.2792 6,8 Z M12,4 C9.79086,4 8,5.79086 8,8 C8,9.51724 8.84437,10.8387 10.0936,11.5176 C10.7532,11.876 11.3159,12.6128 11.2502,13.5329 L11.1352,15.1425 C11.0605,16.1891 10.1896,17 9.14031,17 L6,17 C5.44772,17 5,17.4477 5,18 L5,20 L19,20 L19,18 C19,17.4477 18.5523,17 18,17 L14.8597,17 C13.8104,17 12.9395,16.1891 12.8648,15.1425 L12.7498,13.5329 C12.6841,12.6128 13.2468,11.876 13.9064,11.5176 C15.1556,10.8387 16,9.51724 16,8 C16,5.79086 14.2091,4 12,4 Z" id="形状" fill="#09244B"></path>
            </g>
        </g>
    </g>
</svg>

<svg xmlns="http://www.w3.org/2000/svg" width="24" height="24"><g fill="none" fill-rule="evenodd"><path d="M24 0v24H0V0zM12.593 23.258l-.011.002-.071.035-.02.004-.014-.004-.071-.035c-.01-.004-.019-.001-.024.005l-.004.01-.017.428.005.02.01.013.104.074.015.004.012-.004.104-.074.012-.016.004-.017-.017-.427c-.002-.01-.009-.017-.017-.018m.265-.113-.013.002-.185.093-.01.01-.003.011.018.43.005.012.008.007.201.093c.012.004.023 0 .029-.008l.004-.014-.034-.614c-.003-.012-.01-.02-.02-.022m-.715.002a.023.023 0 0 0-.027.006l-.006.014-.034.614c0 .012.007.02.017.024l.015-.002.201-.093.01-.008.004-.011.017-.43-.003-.012-.01-.01z"/><path fill="#09244B" d="M6 8a6 6 0 1 1 8.861 5.275.285.285 0 0 0-.105.093.084.084 0 0 0-.011.024L14.86 15H18a3 3 0 0 1 3 3v2a2 2 0 0 1-2 2H5a2 2 0 0 1-2-2v-2a3 3 0 0 1 3-3h3.14l.115-1.608a.084.084 0 0 0-.01-.024.286.286 0 0 0-.106-.093A6 6 0 0 1 6 8m6-4a4 4 0 0 0-1.906 7.518c.66.358 1.222 1.095 1.156 2.015l-.115 1.61A2 2 0 0 1 9.14 17H6a1 1 0 0 0-1 1v2h14v-2a1 1 0 0 0-1-1h-3.14a2 2 0 0 1-1.995-1.857l-.115-1.61c-.066-.92.497-1.657 1.156-2.015A4 4 0 0 0 12 4"/></g></svg>
